Newaita-dark/actions/32/edit-find-replace.svg

<?xml version="1.0" encoding="UTF-8"?>
<svg xmlns="http://www.w3.org/2000/svg" xmlns:xlink="http://www.w3.org/1999/xlink" width="32pt" height="32pt" viewBox="0 0 32 32" version="1.1">
<g id="surface1">
<path style=" stroke:none;fill-rule:nonzero;fill:rgb(74.117649%,74.117649%,74.117649%);fill-opacity:1;" d="M 11.90625 1.574219 C 6.042969 1.574219 1.324219 6.292969 1.324219 12.15625 C 1.324219 18.019531 6.042969 22.742188 11.90625 22.742188 C 17.769531 22.742188 22.492188 18.019531 22.492188 12.15625 C 22.492188 6.292969 17.769531 1.574219 11.90625 1.574219 Z M 11.90625 3.558594 C 16.671875 3.558594 20.507812 7.394531 20.507812 12.15625 C 20.507812 16.921875 16.671875 20.757812 11.90625 20.757812 C 7.144531 20.757812 3.308594 16.921875 3.308594 12.15625 C 3.308594 7.394531 7.144531 3.558594 11.90625 3.558594 Z M 11.90625 3.558594 "/>
<path style=" stroke:none;fill-rule:nonzero;fill:rgb(74.117649%,74.117649%,74.117649%);fill-opacity:1;" d="M 17.199219 19.433594 L 19.070312 17.5625 L 23.28125 21.773438 L 21.410156 23.644531 Z M 17.199219 19.433594 "/>
<path style=" stroke:none;fill-rule:nonzero;fill:rgb(55.29412%,43.137255%,38.82353%);fill-opacity:1;" d="M 19.890625 22.355469 L 21.992188 20.253906 C 22.445312 19.800781 23.230469 19.851562 23.75 20.371094 L 29.363281 25.984375 C 29.878906 26.5 29.929688 27.285156 29.476562 27.738281 L 27.375 29.839844 C 26.921875 30.292969 26.136719 30.242188 25.621094 29.726562 L 20.007812 24.113281 C 19.488281 23.59375 19.4375 22.808594 19.890625 22.355469 Z M 19.890625 22.355469 "/>
<path style=" stroke:none;fill-rule:nonzero;fill:rgb(55.29412%,43.137255%,38.82353%);fill-opacity:1;" d="M 3.308594 25.386719 C 4.039062 25.386719 4.628906 25.980469 4.628906 26.710938 C 4.628906 27.441406 4.039062 28.035156 3.308594 28.035156 C 2.578125 28.035156 1.984375 27.441406 1.984375 26.710938 C 1.984375 25.980469 2.578125 25.386719 3.308594 25.386719 Z M 3.308594 25.386719 "/>
<path style=" stroke:none;fill-rule:nonzero;fill:rgb(55.29412%,43.137255%,38.82353%);fill-opacity:1;" d="M 7.9375 25.386719 C 8.667969 25.386719 9.261719 25.980469 9.261719 26.710938 C 9.261719 27.441406 8.667969 28.035156 7.9375 28.035156 C 7.207031 28.035156 6.613281 27.441406 6.613281 26.710938 C 6.613281 25.980469 7.207031 25.386719 7.9375 25.386719 Z M 7.9375 25.386719 "/>
<path style=" stroke:none;fill-rule:nonzero;fill:rgb(55.29412%,43.137255%,38.82353%);fill-opacity:1;" d="M 12.570312 25.386719 C 13.300781 25.386719 13.890625 25.980469 13.890625 26.710938 C 13.890625 27.441406 13.300781 28.035156 12.570312 28.035156 C 11.839844 28.035156 11.246094 27.441406 11.246094 26.710938 C 11.246094 25.980469 11.839844 25.386719 12.570312 25.386719 Z M 12.570312 25.386719 "/>
</g>
</svg>

<svg xmlns="http://www.w3.org/2000/svg" width="32pt" height="32pt" viewBox="0 0 32 32"><path d="M11.906 1.574A10.558 10.558 0 0 0 1.324 12.156a10.561 10.561 0 0 0 10.582 10.586 10.564 10.564 0 0 0 10.586-10.586A10.561 10.561 0 0 0 11.906 1.574zm0 1.985a8.581 8.581 0 0 1 8.602 8.597 8.582 8.582 0 0 1-8.602 8.602 8.581 8.581 0 0 1-8.597-8.602 8.58 8.58 0 0 1 8.597-8.597zm0 0" fill="#bdbdbd"/><path d="M17.2 19.434l1.87-1.872 4.211 4.211-1.87 1.872zm0 0" fill="#bdbdbd"/><path d="M19.89 22.355l2.102-2.101c.453-.453 1.238-.402 1.758.117l5.613 5.613c.516.516.567 1.301.114 1.754l-2.102 2.102c-.453.453-1.238.402-1.754-.113l-5.613-5.614c-.52-.52-.57-1.304-.117-1.758zm0 0M3.309 25.387c.73 0 1.32.593 1.32 1.324a1.322 1.322 0 1 1-2.645 0c0-.73.594-1.324 1.325-1.324zm0 0M7.938 25.387a1.325 1.325 0 0 1 0 2.648 1.325 1.325 0 0 1 0-2.648zm0 0M12.57 25.387c.73 0 1.32.593 1.32 1.324a1.322 1.322 0 1 1-2.644 0c0-.73.594-1.324 1.324-1.324zm0 0" fill="#8d6e63"/></svg>
